X: 23528
T: Lieutenant Maguire's
R: jig
M: 6/8
K: Bminor
|:f|BBB d2e|fBB fBB|AAA c2d|eAA eAA|
BBB d2e|fBB fBB|fff edc|dBB B2:|
|:c|d2e fdd|add fed|d2e fdd|eAA ABc|
d2e fdd|add fed|eee f2e|dBB B2:|
|:f|BBB d2e|f2e fga|AAA c2d|eAA eAA|
BBB d2e|f2e fga|eee f2e|dBB B2:|
|:f|BBB BfB|BaB fBB|AAA AeA|AfA efA|
BBB BfB|BaB fBB|fff edc|dBB B2:|

